X: 1
T: the Golden Legs
C: Liz Carroll 1999
R: reel
Z: 2018 John Chambers <jc:trillian.mit.edu>
M: C|
L: 1/8
K: D
GFE |\
   "D"D2FD "Em"E2GE | "F#m"FDEF "G"GA (3Bcd | "Bm"fdAf "Em"ecAe | "G"dBGd "A7"AECE |
y8|"D"D2FD "Em"E2GE | "F#m"FDEF "G"GA (3Bcd | "A7"efge cAGE | EDCE "D"D :|
a^ga |\
   "D"fd (3.d.d.d cdef | "Em"g2fa gefd | "A7"cA (3.A.A.A "Em"BG (3.G.G.G | "A7"AF (3.F.F.F GEEg ||
y8|"D"fd (3.d.d.d cdef | "Em"g2fa gefd | "A7"cA (3.A.A.A efge | cAGE "D"D ||
a^ga |\
   "D"fd (3.d.d.d cdef | "Em"g2fa gefd | "A7"cA (3.A.A.A "Em"BG (3.G.G.G | "A7"AF (3.F.F.F GEEA |
y8|"D"D2FD "Em"E2GE | "F#m"FDEF "G"GA (3Bcd | "A7"efge cAGE | EDCE "D"D |]
